static/assets/img/icons/theme/devices/router-2.svg

<svg height="24" viewBox="0 0 24 24" width="24" xmlns="http://www.w3.org/2000/svg"><g fill="none" fill-rule="evenodd"><path d="m0 0h24v24h-24z" opacity="0"/><g fill="#000"><rect height="7" rx="2" width="18" x="3" y="13"/><path d="m17.4029496 9.54910207-1.5430482 1.27240013c-.9449962-1.14600325-2.3461542-1.8215022-3.8599014-1.8215022-1.5087915 0-2.90581596.67104182-3.85089879 1.8106159l-1.53946933-1.27672793c1.32110717-1.59298152 3.27995571-2.53388797 5.39036812-2.53388797 2.1173586 0 4.0819686.94713944 5.4029496 2.54910207zm3.0652132-2.57021327-1.5389938 1.27730105c-1.7004965-2.04889341-4.2151593-3.25618985-6.929169-3.25618985-2.71025768 0-5.22179268 1.20393339-6.92233744 3.24796852l-1.53748444-1.2791175c2.07658631-2.49603273 5.14904422-3.96885102 8.45982188-3.96885102 3.3153667 0 6.3916375 1.47692603 8.4681628 3.9788888z" fill-rule="nonzero" opacity=".3"/></g></g></svg>

<svg width="24px" height="24px" viewBox="0 0 24 24" version="1.1" xmlns="http://www.w3.org/2000/svg" xmlns:xlink="http://www.w3.org/1999/xlink">
    <title>Icon For Router#2</title>
    <g stroke="none" stroke-width="1" fill="none" fill-rule="evenodd">
        <rect opacity="0" x="0" y="0" width="24" height="24"></rect>
        <rect fill="#000000" x="3" y="13" width="18" height="7" rx="2"></rect>
        <path d="M17.4029496,9.54910207 L15.8599014,10.8215022 C14.9149052,9.67549895 13.5137472,9 12,9 C10.4912085,9 9.09418404,9.67104182 8.14910121,10.8106159 L6.60963188,9.53388797 C7.93073905,7.94090645 9.88958759,7 12,7 C14.1173586,7 16.0819686,7.94713944 17.4029496,9.54910207 Z M20.4681628,6.9788888 L18.929169,8.25618985 C17.2286725,6.20729644 14.7140097,5 12,5 C9.28974232,5 6.77820732,6.20393339 5.07766256,8.24796852 L3.54017812,6.96885102 C5.61676443,4.47281829 8.68922234,3 12,3 C15.3153667,3 18.3916375,4.47692603 20.4681628,6.9788888 Z" fill="#000000" fill-rule="nonzero" opacity="0.3"></path>
    </g>
</svg>
